svgs/regular/cloud-arrow-down.svg

<svg xmlns="http://www.w3.org/2000/svg" viewBox="0 0 640 512"><!--! Font Awesome Pro 6.0.0-alpha3 by @fontawesome - https://fontawesome.com License - https://fontawesome.com/license (Commercial License) --><path d="M543.3 214.5C543.5 212.3 544 210.2 544 208C544 146.1 493.9 96 432 96c-11.41 0-22.19 2.207-32.56 5.377C368.9 59.51 319.8 32 264 32C170.8 32 95.41 107.9 96.08 200.8C40.24 220.6 0 273.4 0 336C0 415.5 64.47 480 144 480h360c75.11 0 136-60.89 136-136C640 282.7 599.1 231.4 543.3 214.5zM504 432H144c-52.94 0-96-43.07-96-96c0-40.2 25.77-76.36 64.13-89.97l32.19-11.42c-.2734-38.62-.2246-33.15-.293-37.17C145.4 132.4 198.7 80 264 80c38.4 0 73.63 18.1 96.66 49.67l20.14 27.6l32.67-9.988c48.86-14.94 84.23 25.56 81.96 64.4l-2.193 37.72l36.15 10.99C566.8 271.8 592 305.4 592 344C592 392.5 552.5 432 504 432zM391 271L344 318.1V192c0-13.25-10.75-24-24-24S296 178.8 296 192v126.1L248.1 271c-9.375-9.375-24.56-9.375-33.94 0s-9.375 24.56 0 33.94l88 88c2.209 2.209 4.857 3.957 7.787 5.176C313.8 399.4 316.9 400 320 400s6.248-.6406 9.182-1.855c2.93-1.219 5.578-2.967 7.787-5.176l88-88c9.375-9.375 9.375-24.56 0-33.94S400.4 261.7 391 271z"/></svg>

<svg xmlns="http://www.w3.org/2000/svg" viewBox="0 0 640 512"><!-- Font Awesome Pro 6.0.0-alpha2 by @fontawesome - https://fontawesome.com License - https://fontawesome.com/license (Commercial License) --><path d="M543.348 214.469C543.475 212.285 544 210.217 544 208C544 146.145 493.855 96 432 96C420.594 96 409.807 98.207 399.438 101.377C368.885 59.506 319.801 32 264 32C170.801 32 95.412 107.928 96.08 200.793C40.236 220.607 0 273.363 0 336C0 415.529 64.471 480 144 480H504C579.111 480 640 419.109 640 344C640 282.668 599.135 231.428 543.348 214.469ZM504 432H144C91.064 432 48 388.934 48 336C48 295.797 73.771 259.641 112.131 246.029L144.32 234.607C144.047 195.984 144.096 201.461 144.027 197.436C145.395 132.445 198.688 80 264 80C302.396 80 337.629 98.104 360.662 129.67L380.799 157.268L413.471 147.279C462.334 132.338 497.697 172.838 495.428 211.68L493.234 249.402L529.387 260.393C566.838 271.777 592 305.377 592 344C592 392.523 552.523 432 504 432ZM391.031 271.031L344 318.062V192C344 178.75 333.25 168 320 168S296 178.75 296 192V318.062L248.969 271.031C239.594 261.656 224.406 261.656 215.031 271.031S205.656 295.594 215.031 304.969L303.031 392.969C305.24 395.178 307.889 396.926 310.818 398.145C313.752 399.359 316.865 400 320 400S326.248 399.359 329.182 398.145C332.111 396.926 334.76 395.178 336.969 392.969L424.969 304.969C434.344 295.594 434.344 280.406 424.969 271.031S400.406 261.656 391.031 271.031Z"/></svg>
